;FLAVOR:Marlin
;TIME:1826
;Filament used: 1.53013m
;Layer height: 0.2
;Generated with Cura_SteamEngine 3.5.1
M82 ;absolute extrusion mode
M92 E101.09
; Ender 3 Custom Start G-code
M104 S210 ; Set Extruder temperature
M140 S60 ; Set Heat Bed temperature
M190 S60 ; Wait for Heat Bed temperature
M109 S210 ; Wait for Extruder temperature
G28 ; Home all axes
G92 E0 ; Reset Extruder
G1 Z5.0 F3000 ; Move Z Axis up little to prevent scratching of Heat Bed
G1 X0.1 Y20 Z0.3 F5000.0 ; Move to start position
G1 X0.1 Y200.0 Z0.3 F1500.0 E15 ; Draw the first line
G1 X0.4 Y200.0 Z0.3 F5000.0 ; Move to side a little
G1 X0.4 Y20 Z0.3 F1500.0 E30 ; Draw the second line
G92 E0 ; Reset Extruder
G1 Z5.0 F3000 ; Move Z Axis up little to prevent scratching of Heat Bed
G92 E0
G1 F2400 E-6
;LAYER_COUNT:161
;LAYER:0
M106 S255
M204 S5000
M205 X30 Y30
G0 F3600 X90.604 Y95.425 Z0.2
M204 S500
M205 X20 Y20
;TYPE:SKIRT
G1 F2400 E0
G1 F1500 X91.19 Y94.895 E0.02733
G1 X91.826 Y94.428 E0.05462
G1 X92.507 Y94.027 E0.08196
G1 X93.224 Y93.697 E0.10926
G1 X93.971 Y93.441 E0.13658
G1 X94.74 Y93.262 E0.16389
G1 X95.524 Y93.162 E0.19123
G1 X96.313 Y93.141 E0.21853
G1 X97.101 Y93.201 E0.24587
G1 X97.878 Y93.339 E0.27316
G1 X98.637 Y93.556 E0.30047
G1 X99.371 Y93.848 E0.32779
G1 X100.071 Y94.213 E0.3551
G1 X100.731 Y94.647 E0.38242
G1 X101.344 Y95.146 E0.40977
G1 X101.636 Y95.424 E0.42371
G1 X110 Y103.788 E0.83287
G1 X118.364 Y95.424 E1.24202
G1 X118.95 Y94.894 E1.26935
G1 X119.586 Y94.427 E1.29664
G1 X120.266 Y94.026 E1.32395
G1 X120.984 Y93.696 E1.35128
G1 X121.731 Y93.441 E1.37859
G1 X122.5 Y93.262 E1.4059
G1 X123.284 Y93.162 E1.43324
G1 X124.073 Y93.141 E1.46054
G1 X124.86 Y93.201 E1.48784
G1 X125.638 Y93.34 E1.51518
G1 X126.397 Y93.557 E1.54248
G1 X127.131 Y93.849 E1.56981
G1 X127.831 Y94.214 E1.59712
G1 X128.491 Y94.648 E1.62444
G1 X129.103 Y95.147 E1.65175
G1 X129.396 Y95.425 E1.66572
G1 X131.517 Y97.547 E1.7695
G1 X132.046 Y98.133 E1.79681
G1 X132.513 Y98.77 E1.82413
G1 X132.914 Y99.45 E1.85144
G1 X133.244 Y100.168 E1.87877
G1 X133.499 Y100.915 E1.90608
G1 X133.678 Y101.684 E1.93339
G1 X133.777 Y102.467 E1.96069
G1 X133.798 Y103.257 E1.98802
G1 X133.738 Y104.044 E2.01533
G1 X133.599 Y104.822 E2.04266
G1 X133.382 Y105.581 E2.06997
G1 X133.089 Y106.314 E2.09728
G1 X132.724 Y107.015 E2.12461
G1 X132.29 Y107.674 E2.15191
G1 X131.791 Y108.286 E2.17922
G1 X131.515 Y108.576 E2.19307
G1 X115.515 Y124.576 E2.97577
G1 X114.929 Y125.106 E3.0031
G1 X114.293 Y125.573 E3.03039
G1 X113.613 Y125.974 E3.0577
G1 X112.895 Y126.304 E3.08503
G1 X112.148 Y126.559 E3.11233
G1 X111.379 Y126.738 E3.13964
G1 X110.595 Y126.838 E3.16698
G1 X109.806 Y126.859 E3.19428
G1 X109.019 Y126.799 E3.22159
G1 X108.241 Y126.66 E3.24892
G1 X107.482 Y126.443 E3.27623
G1 X106.748 Y126.151 E3.30355
G1 X106.048 Y125.786 E3.33086
G1 X105.388 Y125.352 E3.35819
G1 X104.776 Y124.853 E3.3855
G1 X104.485 Y124.576 E3.3994
G1 X88.485 Y108.576 E4.18209
G1 X87.955 Y107.99 E4.20942
G1 X87.488 Y107.354 E4.23672
G1 X87.087 Y106.674 E4.26402
G1 X86.757 Y105.956 E4.29136
G1 X86.502 Y105.209 E4.31866
G1 X86.323 Y104.44 E4.34597
G1 X86.223 Y103.656 E4.37331
G1 X86.202 Y102.867 E4.40061
G1 X86.262 Y102.08 E4.42791
G1 X86.401 Y101.302 E4.45525
G1 X86.618 Y100.543 E4.48256
G1 X86.91 Y99.809 E4.50988
G1 X87.275 Y99.109 E4.53719
G1 X87.709 Y98.449 E4.56451
G1 X88.208 Y97.837 E4.59183
G1 X88.483 Y97.547 E4.60565
G1 X90.604 Y95.425 E4.70943
M204 S5000
M205 X30 Y30
G0 F3600 X90.887 Y95.708
M204 S500
M205 X20 Y20
G1 F1500 X91.458 Y95.193 E4.73603
G1 X92.08 Y94.74 E4.76265
G1 X92.745 Y94.354 E4.78924
G1 X93.447 Y94.039 E4.81586
G1 X94.178 Y93.799 E4.84247
G1 X94.93 Y93.636 E4.86909
G1 X95.694 Y93.551 E4.89568
G1 X96.463 Y93.547 E4.92228
G1 X97.229 Y93.622 E4.9489
G1 X97.982 Y93.777 E4.97549
G1 X98.716 Y94.009 E5.00212
G1 X99.421 Y94.315 E5.02871
G1 X100.091 Y94.694 E5.05533
G1 X100.717 Y95.14 E5.08192
G1 X101.354 Y95.706 E5.1114
G1 X110 Y104.352 E5.53434
G1 X118.646 Y95.706 E5.95729
G1 X119.218 Y95.192 E5.98389
G1 X119.84 Y94.739 E6.01051
G1 X120.505 Y94.353 E6.03711
G1 X121.207 Y94.038 E6.06372
G1 X121.938 Y93.798 E6.09034
G1 X122.689 Y93.635 E6.11692
G1 X123.454 Y93.551 E6.14354
G1 X124.223 Y93.547 E6.17014
G1 X124.988 Y93.623 E6.19673
G1 X125.742 Y93.777 E6.22335
G1 X126.475 Y94.009 E6.24995
G1 X127.18 Y94.316 E6.27654
G1 X127.85 Y94.695 E6.30317
G1 X128.477 Y95.141 E6.32979
G1 X129.113 Y95.708 E6.35926
G1 X131.234 Y97.83 E6.46304
G1 X131.749 Y98.401 E6.48964
G1 X132.201 Y99.023 E6.51623
G1 X132.587 Y99.689 E6.54286
G1 X132.901 Y100.39 E6.56943
G1 X133.141 Y101.121 E6.59604
G1 X133.304 Y101.873 E6.62266
G1 X133.388 Y102.638 E6.64928
G1 X133.392 Y103.407 E6.67588
G1 X133.316 Y104.172 E6.70247
G1 X133.161 Y104.926 E6.7291
G1 X132.929 Y105.659 E6.75569
G1 X132.622 Y106.364 E6.78229
G1 X132.243 Y107.033 E6.80889
G1 X131.797 Y107.66 E6.8355
G1 X131.233 Y108.294 E6.86486
G1 X115.233 Y124.294 E7.64755
G1 X114.661 Y124.808 E7.67415
G1 X114.039 Y125.261 E7.70077
G1 X113.374 Y125.647 E7.72736
G1 X112.672 Y125.962 E7.75398
G1 X111.941 Y126.202 E7.78059
G1 X111.19 Y126.365 E7.80718
G1 X110.425 Y126.449 E7.8338
G1 X109.656 Y126.453 E7.8604
G1 X108.891 Y126.377 E7.88699
G1 X108.137 Y126.223 E7.91361
G1 X107.404 Y125.991 E7.9402
G1 X106.699 Y125.684 E7.9668
G1 X106.029 Y125.305 E7.99343
G1 X105.402 Y124.859 E8.02004
G1 X104.767 Y124.294 E8.04944
G1 X88.767 Y108.294 E8.83214
G1 X88.253 Y107.722 E8.85874
G1 X87.8 Y107.1 E8.88536
G1 X87.414 Y106.435 E8.91195
G1 X87.099 Y105.733 E8.93857
G1 X86.859 Y105.002 E8.96518
G1 X86.696 Y104.251 E8.99176
G1 X86.612 Y103.486 E9.01839
G1 X86.608 Y102.717 E9.04499
G1 X86.684 Y101.952 E9.07158
G1 X86.838 Y101.198 E9.0982
G1 X87.07 Y100.465 E9.12479
G1 X87.377 Y99.76 E9.15139
G1 X87.756 Y99.09 E9.17802
G1 X88.202 Y98.463 E9.20463
G1 X88.766 Y97.83 E9.23396
G1 X90.887 Y95.708 E9.33774
M204 S5000
M205 X30 Y30
G0 F3600 X91.17 Y95.99
M204 S500
M205 X20 Y20
G1 F1500 X91.726 Y95.49 E9.3636
G1 X92.333 Y95.052 E9.3895
G1 X92.983 Y94.682 E9.41537
G1 X93.668 Y94.383 E9.44122
G1 X94.382 Y94.158 E9.46712
G1 X95.116 Y94.012 E9.493
G1 X95.861 Y93.944 E9.51888
G1 X96.609 Y93.956 E9.54476
G1 X97.351 Y94.048 E9.57062
G1 X98.079 Y94.218 E9.59648
G1 X98.785 Y94.466 E9.62236
G1 X99.461 Y94.787 E9.64825
G1 X100.098 Y95.179 E9.67412
G1 X100.69 Y95.636 E9.69999
G1 X101.071 Y95.989 E9.71796
G1 X110 Y104.918 E10.15475
G1 X118.929 Y95.989 E10.59154
G1 X119.486 Y95.489 E10.61743
G1 X120.092 Y95.052 E10.64328
G1 X120.742 Y94.681 E10.66916
G1 X121.428 Y94.382 E10.69505
G1 X122.142 Y94.158 E10.72093
G1 X122.875 Y94.011 E10.74679
G1 X123.62 Y93.944 E10.77267
G1 X124.368 Y93.956 E10.79854
G1 X125.111 Y94.048 E10.82444
G1 X125.839 Y94.219 E10.85031
G1 X126.545 Y94.466 E10.87618
G1 X127.22 Y94.788 E10.90205
G1 X127.858 Y95.18 E10.92795
G1 X128.449 Y95.637 E10.95379
G1 X128.83 Y95.99 E10.97176
G1 X130.951 Y98.112 E11.07554
G1 X131.451 Y98.669 E11.10143
G1 X131.888 Y99.276 E11.1273
G1 X132.259 Y99.926 E11.15319
G1 X132.557 Y100.612 E11.17906
G1 X132.781 Y101.325 E11.20491
G1 X132.928 Y102.059 E11.23081
G1 X132.995 Y102.804 E11.25668
G1 X132.983 Y103.552 E11.28256
G1 X132.891 Y104.294 E11.30842
G1 X132.72 Y105.022 E11.33429
G1 X132.472 Y105.728 E11.36017
G1 X132.15 Y106.404 E11.38607
G1 X131.758 Y107.041 E11.41195
G1 X131.301 Y107.633 E11.43781
G1 X130.95 Y108.011 E11.45566
G1 X114.95 Y124.011 E12.23835
G1 X114.393 Y124.511 E12.26424
G1 X113.787 Y124.948 E12.29009
G1 X113.137 Y125.319 E12.31598
G1 X112.451 Y125.618 E12.34186
G1 X111.737 Y125.842 E12.36774
G1 X111.004 Y125.989 E12.3936
G1 X110.259 Y126.056 E12.41948
G1 X109.511 Y126.044 E12.44536
G1 X108.768 Y125.952 E12.47125
G1 X108.04 Y125.781 E12.49712
G1 X107.334 Y125.534 E12.52299
G1 X106.659 Y125.212 E12.54886
G1 X106.021 Y124.82 E12.57476
G1 X105.43 Y124.363 E12.6006
G1 X105.05 Y124.011 E12.61852
G1 X89.05 Y108.011 E13.40122
G1 X88.55 Y107.454 E13.42711
G1 X88.113 Y106.848 E13.45295
G1 X87.742 Y106.198 E13.47884
G1 X87.443 Y105.512 E13.50472
G1 X87.219 Y104.798 E13.53061
G1 X87.072 Y104.065 E13.55647
G1 X87.005 Y103.32 E13.58234
G1 X87.017 Y102.572 E13.60822
G1 X87.109 Y101.829 E13.63412
G1 X87.28 Y101.101 E13.65998
G1 X87.527 Y100.395 E13.68586
G1 X87.849 Y99.72 E13.71173
G1 X88.241 Y99.082 E13.73763
G1 X88.698 Y98.491 E13.76347
G1 X89.049 Y98.112 E13.78134
G1 X91.17 Y95.99 E13.88512
M204 S5000
M205 X30 Y30
G0 F3600 X91.453 Y96.273
M204 S500
M205 X20 Y20
G1 F1500 X91.994 Y95.788 E13.91025
G1 X92.585 Y95.366 E13.93537
G1 X93.219 Y95.011 E13.9605
G1 X93.888 Y94.728 E13.98563
G1 X94.584 Y94.521 E14.01075
G1 X95.298 Y94.39 E14.03586
G1 X96.023 Y94.34 E14.061
G1 X96.749 Y94.369 E14.08613
G1 X97.467 Y94.478 E14.11125
G1 X98.169 Y94.665 E14.13638
G1 X98.846 Y94.928 E14.1615
G1 X99.49 Y95.264 E14.18663
G1 X100.093 Y95.668 E14.21173
G1 X100.788 Y96.272 E14.24358
G1 X110 Y105.484 E14.69422
G1 X119.212 Y96.272 E15.14486
G1 X119.753 Y95.788 E15.16997
G1 X120.344 Y95.365 E15.19511
G1 X120.978 Y95.011 E15.22022
G1 X121.647 Y94.728 E15.24535
G1 X122.343 Y94.52 E15.27048
G1 X123.058 Y94.39 E15.29562
G1 X123.782 Y94.34 E15.32072
G1 X124.508 Y94.369 E15.34585
G1 X125.226 Y94.478 E15.37097
G1 X125.928 Y94.665 E15.3961
G1 X126.605 Y94.928 E15.42122
G1 X127.249 Y95.264 E15.44635
G1 X127.852 Y95.669 E15.47148
G1 X128.547 Y96.273 E15.50333
G1 X130.668 Y98.395 E15.60711
G1 X131.152 Y98.936 E15.63222
G1 X131.574 Y99.528 E15.65736
G1 X131.929 Y100.162 E15.6825
G1 X132.212 Y100.831 E15.70762
G1 X132.419 Y101.527 E15.73274
G1 X132.549 Y102.241 E15.75785
G1 X132.599 Y102.966 E15.78298
G1 X132.57 Y103.692 E15.80812
G1 X132.461 Y104.41 E15.83324
G1 X132.273 Y105.112 E15.85837
G1 X132.01 Y105.789 E15.8835
G1 X131.674 Y106.433 E15.90862
G1 X131.269 Y107.036 E15.93375
G1 X130.667 Y107.728 E15.96548
G1 X114.667 Y123.728 E16.74817
G1 X114.126 Y124.212 E16.77328
G1 X113.535 Y124.635 E16.79842
G1 X112.901 Y124.989 E16.82354
G1 X112.232 Y125.272 E16.84866
G1 X111.536 Y125.48 E16.87379
G1 X110.821 Y125.61 E16.89893
G1 X110.097 Y125.66 E16.92403
G1 X109.371 Y125.631 E16.94916
G1 X108.653 Y125.522 E16.97429
G1 X107.951 Y125.335 E16.99941
G1 X107.274 Y125.072 E17.02454
G1 X106.63 Y124.736 E17.04966
G1 X106.027 Y124.331 E17.07479
G1 X105.333 Y123.728 E17.10659
G1 X89.333 Y107.728 E17.88929
G1 X88.849 Y107.187 E17.91439
G1 X88.426 Y106.596 E17.93953
G1 X88.072 Y105.962 E17.96465
G1 X87.789 Y105.293 E17.98978
G1 X87.581 Y104.597 E18.01491
G1 X87.451 Y103.882 E18.04004
G1 X87.401 Y103.158 E18.06515
G1 X87.43 Y102.432 E18.09028
G1 X87.539 Y101.714 E18.1154
G1 X87.726 Y101.012 E18.14053
G1 X87.989 Y100.335 E18.16565
G1 X88.325 Y99.691 E18.19078
G1 X88.73 Y99.088 E18.2159
G1 X89.332 Y98.395 E18.24766
G1 X91.453 Y96.273 E18.35144
M204 S5000
M205 X30 Y30
G0 F3600 X91.736 Y96.556
M204 S500
M205 X20 Y20
G1 F1500 X92.261 Y96.087 E18.37579
G1 X92.836 Y95.681 E18.40014
G1 X93.453 Y95.342 E18.42449
G1 X94.105 Y95.076 E18.44885
G1 X94.783 Y94.885 E18.47321
G1 X95.477 Y94.772 E18.49753
G1 X96.181 Y94.739 E18.52191
G1 X96.883 Y94.786 E18.54625
G1 X97.576 Y94.912 E18.57061
G1 X98.25 Y95.116 E18.59497
G1 X98.896 Y95.395 E18.61931
G1 X99.507 Y95.745 E18.64367
G1 X100.074 Y96.162 E18.66801
G1 X100.505 Y96.555 E18.68819
G1 X110 Y106.05 E19.15267
G1 X119.495 Y96.555 E19.61715
G1 X120.02 Y96.086 E19.6415
G1 X120.595 Y95.68 E19.66585
G1 X121.213 Y95.342 E19.69021
G1 X121.864 Y95.075 E19.71455
G1 X122.542 Y94.885 E19.73891
G1 X123.237 Y94.772 E19.76327
G1 X123.94 Y94.739 E19.78761
G1 X124.643 Y94.786 E19.81198
G1 X125.335 Y94.912 E19.83631
G1 X126.009 Y95.116 E19.86067
G1 X126.655 Y95.395 E19.88501
G1 X127.266 Y95.746 E19.90938
G1 X127.833 Y96.163 E19.93373
G1 X128.264 Y96.556 E19.95391
G1 X130.385 Y98.678 E20.05769
G1 X130.854 Y99.203 E20.08204
G1 X131.26 Y99.778 E20.10638
G1 X131.598 Y100.396 E20.13075
G1 X131.864 Y101.048 E20.15511
G1 X132.054 Y101.725 E20.17943
G1 X132.167 Y102.42 E20.20379
G1 X132.2 Y103.124 E20.22816
G1 X132.153 Y103.826 E20.2525
G1 X132.026 Y104.519 E20.27687
G1 X131.822 Y105.192 E20.3012
G1 X131.543 Y105.839 E20.32557
G1 X131.192 Y106.449 E20.34991
G1 X130.775 Y107.016 E20.37426
G1 X130.384 Y107.445 E20.39434
G1 X114.384 Y123.445 E21.17703
G1 X113.859 Y123.914 E21.20138
G1 X113.284 Y124.32 E21.22573
G1 X112.666 Y124.658 E21.2501
G1 X112.015 Y124.925 E21.27444
G1 X111.337 Y125.115 E21.29879
G1 X110.642 Y125.228 E21.32315
G1 X109.939 Y125.261 E21.34749
G1 X109.236 Y125.214 E21.37186
G1 X108.544 Y125.088 E21.39619
G1 X107.87 Y124.884 E21.42055
G1 X107.224 Y124.605 E21.44489
G1 X106.613 Y124.254 E21.46927
G1 X106.046 Y123.837 E21.49361
G1 X105.616 Y123.445 E21.51374
G1 X89.616 Y107.445 E22.29643
G1 X89.147 Y106.92 E22.32078
G1 X88.741 Y106.345 E22.34513
G1 X88.403 Y105.727 E22.3695
G1 X88.136 Y105.076 E22.39384
G1 X87.946 Y104.398 E22.41819
G1 X87.833 Y103.703 E22.44255
G1 X87.8 Y103 E22.46689
G1 X87.847 Y102.297 E22.49126
G1 X87.973 Y101.605 E22.51559
G1 X88.177 Y100.931 E22.53995
G1 X88.456 Y100.285 E22.56429
G1 X88.807 Y99.674 E22.58867
G1 X89.224 Y99.107 E22.61301
G1 X89.615 Y98.678 E22.63309
G1 X91.736 Y96.556 E22.73687
M204 S5000
M205 X30 Y30
G0 F3600 X92.019 Y96.839
M204 S500
M205 X20 Y20
G1 F1500 X92.528 Y96.386 E22.76044
G1 X93.086 Y95.997 E22.78397
G1 X93.686 Y95.675 E22.80752
G1 X94.32 Y95.426 E22.83109
G1 X94.978 Y95.253 E22.85462
G1 X95.652 Y95.158 E22.87816
G1 X96.333 Y95.143 E22.90173
G1 X97.011 Y95.208 E22.92529
G1 X97.677 Y95.351 E22.94885
G1 X98.321 Y95.572 E22.9724
G1 X98.934 Y95.867 E22.99593
G1 X99.509 Y96.232 E23.01949
G1 X100.222 Y96.838 E23.05186
G1 X110 Y106.616 E23.53018
G1 X119.778 Y96.838 E24.00851
G1 X120.287 Y96.385 E24.03208
G1 X120.845 Y95.996 E24.0556
G1 X121.445 Y95.674 E24.07916
G1 X122.079 Y95.425 E24.10272
G1 X122.738 Y95.252 E24.12629
G1 X123.412 Y95.158 E24.14983
G1 X124.093 Y95.143 E24.17339
G1 X124.77 Y95.208 E24.19691
G1 X125.436 Y95.352 E24.22048
G1 X126.08 Y95.573 E24.24403
G1 X126.694 Y95.868 E24.2676
G1 X127.268 Y96.232 E24.29111
G1 X127.981 Y96.839 E24.3235
G1 X130.102 Y98.961 E24.42728
G1 X130.554 Y99.47 E24.45083
G1 X130.944 Y100.028 E24.47437
G1 X131.265 Y100.629 E24.49794
G1 X131.514 Y101.262 E24.52147
G1 X131.687 Y101.921 E24.54504
G1 X131.781 Y102.595 E24.56858
G1 X131.796 Y103.276 E24.59214
G1 X131.731 Y103.954 E24.6157
G1 X131.587 Y104.619 E24.63924
G1 X131.366 Y105.263 E24.66279
G1 X131.071 Y105.877 E24.68635
G1 X130.706 Y106.452 E24.70991
G1 X130.101 Y107.162 E24.74218
G1 X114.101 Y123.162 E25.52487
G1 X113.592 Y123.615 E25.54844
G1 X113.034 Y124.004 E25.57197
G1 X112.434 Y124.326 E25.59552
G1 X111.8 Y124.575 E25.61908
G1 X111.141 Y124.748 E25.64265
G1 X110.467 Y124.842 E25.66619
G1 X109.786 Y124.857 E25.68975
G1 X109.109 Y124.792 E25.71328
G1 X108.443 Y124.648 E25.73685
G1 X107.799 Y124.427 E25.7604
G1 X107.185 Y124.132 E25.78396
G1 X106.611 Y123.768 E25.80747
G1 X105.899 Y123.162 E25.83981
G1 X89.899 Y107.162 E26.62251
G1 X89.446 Y106.653 E26.64608
G1 X89.057 Y106.095 E26.66961
G1 X88.735 Y105.495 E26.69316
G1 X88.486 Y104.861 E26.71672
G1 X88.313 Y104.202 E26.74029
G1 X88.219 Y103.528 E26.76383
G1 X88.204 Y102.847 E26.78739
G1 X88.269 Y102.17 E26.81092
G1 X88.413 Y101.504 E26.83449
G1 X88.634 Y100.86 E26.85804
G1 X88.929 Y100.246 E26.8816
G1 X89.293 Y99.672 E26.90511
G1 X89.898 Y98.961 E26.9374
G1 X92.019 Y96.839 E27.04118
M204 S5000
M205 X30 Y30
G0 F3600 X92.302 Y97.122
M204 S500
M205 X20 Y20
G1 F1500 X92.794 Y96.686 E27.06392
G1 X93.335 Y96.313 E27.08665
G1 X93.917 Y96.009 E27.10937
G1 X94.532 Y95.778 E27.13209
G1 X95.17 Y95.623 E27.1548
G1 X95.823 Y95.547 E27.17754
G1 X96.48 Y95.551 E27.20027
